resources/img/scalable/actions/flypie-custom-menu-symbolic.svg

<?xml version="1.0" encoding="UTF-8" standalone="no"?>
<svg
   xmlns:dc="http://purl.org/dc/elements/1.1/"
   xmlns:cc="http://creativecommons.org/ns#"
   xmlns:rdf="http://www.w3.org/1999/02/22-rdf-syntax-ns#"
   xmlns:svg="http://www.w3.org/2000/svg"
   xmlns="http://www.w3.org/2000/svg"
   xmlns:sodipodi="http://sodipodi.sourceforge.net/DTD/sodipodi-0.dtd"
   xmlns:inkscape="http://www.inkscape.org/namespaces/inkscape"
   width="4.2333mm"
   height="4.2276mm"
   version="1.1"
   viewBox="0 0 4.2333 4.2276"
   id="svg4728"
   sodipodi:docname="flypie-custom-menu-symbolic.svg"
   inkscape:version="1.0.2 (e86c870879, 2021-01-15)">
  <defs
     id="defs4732" />
  <sodipodi:namedview
     pagecolor="#ffffff"
     bordercolor="#666666"
     borderopacity="1"
     objecttolerance="10"
     gridtolerance="10"
     guidetolerance="10"
     inkscape:pageopacity="0"
     inkscape:pageshadow="2"
     inkscape:window-width="1665"
     inkscape:window-height="976"
     id="namedview4730"
     showgrid="false"
     inkscape:zoom="45.999798"
     inkscape:cx="7.9999374"
     inkscape:cy="7.9891655"
     inkscape:window-x="0"
     inkscape:window-y="32"
     inkscape:window-maximized="0"
     inkscape:current-layer="svg4728" />
  <metadata
     id="metadata4716">
    <rdf:RDF>
      <cc:Work
         rdf:about="">
        <dc:format>image/svg+xml</dc:format>
        <dc:type
           rdf:resource="http://purl.org/dc/dcmitype/StillImage" />
        <dc:title />
      </cc:Work>
    </rdf:RDF>
  </metadata>
  <path
     d="M 2.91376,0.25524 2.3846,0.7844 h 0.39687 a 0.13230323,0.13230323 0 0 1 0.093534,0.0387557 l 0.5250329,0.5250325 a 0.13230323,0.13230323 0 0 1 0.038756,0.093534 V 1.8623518 L 3.9875844,1.31356 V 0.79990439 L 3.44292,0.25524 Z M 2.12002,1.04898 0.26796,2.90104 V 3.95936 H 1.3417844 L 3.1742126,2.1269318 V 1.4964906 L 2.7267019,1.04898 Z"
     fill="#2e3436"
     id="path4722"
     style="stroke-width:0.26458" />
</svg>

<svg xmlns="http://www.w3.org/2000/svg" width="16" height="15.978" viewBox="0 0 4.233 4.228"><path d="m2.914.255-.53.53h.397a.132.132 0 0 1 .094.038l.525.525a.132.132 0 0 1 .039.094v.42l.549-.548V.8L3.443.255Zm-.794.794L.268 2.901v1.058h1.074l1.832-1.832v-.63l-.447-.448Z" fill="#2e3436" style="stroke-width:.26458"/></svg>
